public/logos/18_esp/CA.svg

<svg version="1.1" id="Layer_1" xmlns="http://www.w3.org/2000/svg" xmlns:xlink="http://www.w3.org/1999/xlink" x="0px" y="0px"
	 width="100%" viewBox="0 0 202 188" enable-background="new 0 0 202 188" xml:space="preserve">
<path fill="#2C2B2A" opacity="1.000000" stroke="none"
	d="
M1.000000,31.000000
	C1.000000,27.969406 1.000000,24.938814 1.380001,21.452646
	C11.182787,18.264700 12.452056,9.972505 14.565421,2.241429
	C71.651680,2.241429 128.755310,2.241429 184.715195,2.241429
	C186.654907,6.951686 187.525894,11.746203 190.258041,14.957014
	C193.060165,18.250051 197.682648,19.994097 202.699905,23.170383
	C201.273544,31.755051 199.607574,41.526398 198.032745,51.312408
	C194.627213,72.474480 187.875000,92.637726 178.516983,111.788467
	C167.723221,133.877335 154.019806,154.011566 134.713364,169.797104
	C125.895004,177.007278 116.478531,183.260086 105.606865,186.855545
	C103.330070,187.608505 100.156197,187.317535 97.950226,186.302490
	C91.385323,183.281708 84.939857,179.923706 78.730865,176.222488
	C63.558315,167.178009 50.608593,155.673309 39.767574,141.589828
	C31.463408,130.801956 25.505033,118.855347 20.200100,106.520470
	C11.349565,85.941460 5.784363,64.438148 2.968219,42.212311
	C2.491780,38.452114 1.664945,34.736313 1.000000,31.000000
M112.709206,163.294296
	C124.278717,157.674301 134.111298,149.823730 142.147812,139.824249
	C159.731812,117.945274 169.410355,92.383049 175.898224,65.493080
	C178.176178,56.051853 179.218704,46.312546 180.850906,36.556511
	C171.269638,34.933594 167.568787,29.577778 167.729706,21.090820
	C123.027428,21.090820 78.633095,21.090820 34.265625,21.090820
	C33.906342,27.013252 31.895626,32.156799 27.108461,34.978783
	C24.082621,36.762478 23.654671,38.619503 24.159409,41.297241
	C27.081675,56.800449 29.074198,72.569679 33.280865,87.721519
	C42.647602,121.459206 61.870365,147.708954 94.025848,163.666626
	C100.590645,166.924515 106.040619,167.428055 112.709206,163.294296
z"/>
<path fill="#DAE184" opacity="1.000000" stroke="none"
	d="
M112.389389,163.494110
	C106.040619,167.428055 100.590645,166.924515 94.025848,163.666626
	C61.870365,147.708954 42.647602,121.459206 33.280865,87.721519
	C29.074198,72.569679 27.081675,56.800449 24.159409,41.297241
	C23.654671,38.619503 24.082621,36.762478 27.108461,34.978783
	C31.895626,32.156799 33.906342,27.013252 34.265625,21.090820
	C78.633095,21.090820 123.027428,21.090820 167.729706,21.090820
	C167.568787,29.577778 171.269638,34.933594 180.850906,36.556511
	C179.218704,46.312546 178.176178,56.051853 175.898224,65.493080
	C169.410355,92.383049 159.731812,117.945274 142.147812,139.824249
	C134.111298,149.823730 124.278717,157.674301 112.389389,163.494110
M122.429443,50.627514
	C120.786964,51.217590 119.144493,51.807663 117.502014,52.397736
	C117.907600,52.658745 118.313187,52.919758 118.718765,53.180767
	C118.276031,55.694637 118.349388,58.449814 117.305443,60.682579
	C111.272079,73.586609 104.840683,86.305016 98.845245,99.226021
	C96.933167,103.346809 98.462593,106.071953 102.148895,106.908287
	C106.883629,107.982498 111.493568,105.691727 112.027840,101.999245
	C113.126450,94.406548 114.746613,93.004158 122.419762,93.004089
	C123.583832,93.004082 124.773544,93.162224 125.907768,92.978241
	C132.908539,91.842644 137.502121,93.562576 139.713486,101.340294
	C141.402695,107.281502 145.628860,108.316917 151.226395,105.803108
	C153.119537,104.952911 154.833984,103.704781 156.185272,102.902573
	C152.867859,96.082069 149.542053,89.783058 146.701859,83.272209
	C142.926804,74.618355 139.744019,65.704086 135.900726,57.082710
	C133.036850,50.658367 130.407822,49.557461 122.429443,50.627514
M91.432327,62.309719
	C95.956886,61.646107 95.825783,57.656609 95.712852,54.837616
	C95.643890,53.116161 93.063057,50.418980 91.209969,50.020035
	C79.180969,47.430344 68.071602,50.019100 58.503399,57.788548
	C49.931618,64.748909 46.589642,73.977554 48.534607,84.887001
	C50.516777,96.005135 57.470852,103.230820 68.043739,105.878967
	C74.617554,107.525475 81.803261,107.364288 88.652840,106.963486
	C91.414978,106.801865 95.282341,104.382637 96.319084,101.984558
	C97.303833,99.706749 95.249168,96.114937 94.514542,93.031967
	C90.955872,94.147469 88.631775,95.073524 86.220345,95.597984
	C75.217583,97.990944 65.298561,92.320465 63.291786,82.600159
	C61.096664,71.967552 67.182716,62.934429 78.239059,61.349998
	C82.235352,60.777309 86.457405,61.780029 91.432327,62.309719
z"/>
<path fill="#030302" opacity="1.000000" stroke="none"
	d="
M122.805923,50.484741
	C130.407822,49.557461 133.036850,50.658367 135.900726,57.082710
	C139.744019,65.704086 142.926804,74.618355 146.701859,83.272209
	C149.542053,89.783058 152.867859,96.082069 156.185272,102.902573
	C154.833984,103.704781 153.119537,104.952911 151.226395,105.803108
	C145.628860,108.316917 141.402695,107.281502 139.713486,101.340294
	C137.502121,93.562576 132.908539,91.842644 125.907768,92.978241
	C124.773544,93.162224 123.583832,93.004082 122.419762,93.004089
	C114.746613,93.004158 113.126450,94.406548 112.027840,101.999245
	C111.493568,105.691727 106.883629,107.982498 102.148895,106.908287
	C98.462593,106.071953 96.933167,103.346809 98.845245,99.226021
	C104.840683,86.305016 111.272079,73.586609 117.305443,60.682579
	C118.349388,58.449814 118.276031,55.694637 118.718765,53.180767
	C118.313187,52.919758 117.907600,52.658745 117.502014,52.397736
	C119.144493,51.807663 120.786964,51.217590 122.805923,50.484741
M120.318321,81.102730
	C120.721992,81.733505 121.102493,82.892548 121.532997,82.911438
	C124.954834,83.061531 128.386169,82.995071 132.423340,82.995071
	C130.405426,77.379448 128.590256,72.328056 126.338982,66.063042
	C124.163071,71.550468 122.417770,75.951920 120.318321,81.102730
z"/>
<path fill="#040403" opacity="1.000000" stroke="none"
	d="
M91.004379,62.186790
	C86.457405,61.780029 82.235352,60.777309 78.239059,61.349998
	C67.182716,62.934429 61.096664,71.967552 63.291786,82.600159
	C65.298561,92.320465 75.217583,97.990944 86.220345,95.597984
	C88.631775,95.073524 90.955872,94.147469 94.514542,93.031967
	C95.249168,96.114937 97.303833,99.706749 96.319084,101.984558
	C95.282341,104.382637 91.414978,106.801865 88.652840,106.963486
	C81.803261,107.364288 74.617554,107.525475 68.043739,105.878967
	C57.470852,103.230820 50.516777,96.005135 48.534607,84.887001
	C46.589642,73.977554 49.931618,64.748909 58.503399,57.788548
	C68.071602,50.019100 79.180969,47.430344 91.209969,50.020035
	C93.063057,50.418980 95.643890,53.116161 95.712852,54.837616
	C95.825783,57.656609 95.956886,61.646107 91.004379,62.186790
z"/>
<path fill="#D3D980" opacity="1.000000" stroke="none"
	d="
M120.495392,80.728050
	C122.417770,75.951920 124.163071,71.550468 126.338982,66.063042
	C128.590256,72.328056 130.405426,77.379448 132.423340,82.995071
	C128.386169,82.995071 124.954834,83.061531 121.532997,82.911438
	C121.102493,82.892548 120.721992,81.733505 120.495392,80.728050
z"/>
</svg>

<svg xmlns="http://www.w3.org/2000/svg" xml:space="preserve" viewBox="0 0 202 188"><path fill="#2c2b2a" d="M1 31c0-3.03 0-6.061.38-9.547 9.803-3.188 11.072-11.48 13.185-19.212h170.15c1.94 4.71 2.81 9.505 5.543 12.716 2.802 3.293 7.425 5.037 12.442 8.213-1.426 8.585-3.092 18.356-4.667 28.142-3.406 21.162-10.158 41.326-19.516 60.476-10.794 22.09-24.497 42.224-43.804 58.01-8.818 7.21-18.234 13.462-29.106 17.058-2.277.753-5.45.462-7.657-.554-6.565-3.02-13.01-6.378-19.22-10.08-15.172-9.044-28.121-20.549-38.962-34.632-8.305-10.788-14.263-22.735-19.568-35.07C11.35 85.941 5.784 64.438 2.968 42.212 2.492 38.452 1.665 34.736 1 31m111.71 132.294c11.569-5.62 21.401-13.47 29.438-23.47 17.584-21.879 27.262-47.441 33.75-74.33 2.278-9.442 3.32-19.181 4.953-28.937-9.581-1.623-13.282-6.98-13.121-15.466H34.266c-.36 5.922-2.37 11.066-7.158 13.888-3.025 1.783-3.453 3.64-2.949 6.318 2.923 15.503 4.915 31.273 9.122 46.425 9.367 33.737 28.59 59.987 60.745 75.945 6.565 3.258 12.015 3.761 18.683-.373"/><path fill="#dae184" d="M112.39 163.494c-6.35 3.934-11.8 3.43-18.364.173-32.156-15.958-51.378-42.208-60.745-75.945-4.207-15.152-6.2-30.922-9.122-46.425-.504-2.677-.076-4.535 2.95-6.318 4.787-2.822 6.797-7.966 7.157-13.888H167.73c-.161 8.487 3.54 13.843 13.12 15.466-1.631 9.756-2.674 19.495-4.952 28.936-6.488 26.89-16.166 52.452-33.75 74.331-8.037 10-17.87 17.85-29.759 23.67m10.04-112.866-4.927 1.77q.609.39 1.217.783c-.443 2.514-.37 5.269-1.414 7.502-6.033 12.904-12.464 25.622-18.46 38.543-1.912 4.12-.382 6.846 3.304 7.682 4.735 1.074 9.345-1.216 9.879-4.909 1.098-7.592 2.719-8.995 10.392-8.995 1.164 0 2.354.158 3.488-.026 7-1.135 11.594.585 13.805 8.362 1.69 5.942 5.916 6.977 11.513 4.463 1.894-.85 3.608-2.098 4.96-2.9-3.318-6.82-6.644-13.12-9.484-19.63-3.775-8.655-6.958-17.569-10.801-26.19-2.864-6.425-5.493-7.526-13.472-6.455M91.432 62.31c4.525-.664 4.394-4.653 4.28-7.472-.068-1.722-2.649-4.419-4.502-4.818-12.029-2.59-23.138 0-32.707 7.769-8.571 6.96-11.913 16.189-9.968 27.098 1.982 11.118 8.936 18.344 19.509 20.992 6.574 1.646 13.76 1.485 20.609 1.084 2.762-.161 6.63-2.58 7.666-4.978.985-2.278-1.07-5.87-1.804-8.953-3.56 1.115-5.883 2.042-8.295 2.566C75.218 97.991 65.3 92.32 63.292 82.6c-2.195-10.632 3.89-19.666 14.947-21.25 3.996-.573 8.218.43 13.193.96"/><path fill="#030302" d="M122.806 50.485c7.602-.928 10.23.173 13.095 6.598 3.843 8.621 7.026 17.535 10.8 26.19 2.841 6.51 6.167 12.81 9.484 19.63-1.351.802-3.065 2.05-4.959 2.9-5.597 2.514-9.823 1.479-11.513-4.463-2.21-7.777-6.804-9.497-13.805-8.362-1.134.184-2.324.026-3.488.026-7.673 0-9.294 1.403-10.392 8.995-.534 3.693-5.144 5.983-9.88 4.91-3.685-.837-5.215-3.562-3.303-7.683 5.996-12.921 12.427-25.64 18.46-38.543 1.044-2.233.971-4.988 1.414-7.502l-1.217-.783c1.642-.59 3.285-1.18 5.304-1.913m-2.488 30.618c.404.63.784 1.79 1.215 1.808 3.422.15 6.853.084 10.89.084l-6.084-16.932c-2.176 5.487-3.921 9.889-6.02 15.04"/><path fill="#040403" d="M91.004 62.187c-4.547-.407-8.769-1.41-12.765-.837-11.056 1.584-17.142 10.618-14.947 21.25 2.007 9.72 11.926 15.39 22.928 12.998 2.412-.524 4.736-1.45 8.295-2.566.734 3.083 2.789 6.675 1.804 8.953-1.037 2.398-4.904 4.817-7.666 4.978-6.85.401-14.035.562-20.61-1.084-10.572-2.648-17.526-9.874-19.508-20.992-1.945-10.91 1.397-20.138 9.968-27.098 9.569-7.77 20.678-10.359 32.707-7.769 1.853.399 4.434 3.096 4.503 4.818.113 2.819.244 6.808-4.709 7.349"/><path fill="#d3d980" d="M120.495 80.728c1.923-4.776 3.668-9.178 5.844-14.665l6.084 16.932c-4.037 0-7.468.067-10.89-.084-.43-.018-.811-1.177-1.038-2.183"/></svg>
